archdroid-icon-theme/Archdroid-Indigo/status/scalable/wb_irradescent.svg

<svg fill="#3F51B5" height="48" viewBox="0 0 48 48" width="48" xmlns="http://www.w3.org/2000/svg"><path d="m10 29h28v-12h-28zm12-27.9v5.9h4v-5.9zm16.07 5-3.59 3.59 2.83 2.83 3.59-3.59zm-12.07 38.8v-5.9h-4v5.9zm14.9-7.83-3.59-3.59-2.83 2.83 3.59 3.59zm-33.8-28.14 3.59 3.59 2.83-2.83-3.59-3.59zm2.83 30.97 3.59-3.59-2.83-2.83-3.59 3.59z" fill="#3F51B5"/></svg>

<svg fill="#3F51B5" height="48" viewBox="0 0 48 48" width="48" xmlns="http://www.w3.org/2000/svg"><path d="M10 29h28V17H10v12zM22 1.1V7h4V1.1h-4zm16.07 5l-3.59 3.59 2.83 2.83 3.59-3.59-2.83-2.83zM26 44.9V39h-4v5.9h4zm14.9-7.83l-3.59-3.59-2.83 2.83 3.59 3.59 2.83-2.83zM7.1 8.93l3.59 3.59 2.83-2.83L9.93 6.1 7.1 8.93zM9.93 39.9l3.59-3.59-2.83-2.83-3.59 3.59 2.83 2.83z"/></svg>
